X:1
T:Rackarepolska efter Munkberg (744)
R:polska
Z:Jonas Brunskog, 7/8 2008
O:Barsebck, Skne
S:efter Per Munkberg
B:Svenska Ltar
N:Sv. L. Sk. 744 (jfr Musik/316|Brolin 982)
M:3/4
L:1/16
K:Dm
|:f2af e2ge e2d2|(fe)d^c (de)fg a4|f2c'b a2a2 bagf|
g2(ba) g2g2 agfe|f2af e2ge d2fd|fed^c e2d2 d4:|
|:cdef g2g2 fedc|c2c'b a2a2 (ba)gf|cdef g2ga (ba)gf|e(fe)d c(de)c A4|
|c2(c'b) a2a2 (ba)gf|g2ba g2g2 (ag)fe|f2af e2ge d2fd|fed^c e2d2 [dD]4:|
